X: 7146
T: Chromatica, The
R: jig
M: 6/8
K: Aminor
cd|_e=ed cAG|ABA GED|E^FG ABc|^cde ^f=cd|
_e=ed cAG|ABA GED|E^FG ABd|cA^G Acd|
_e=ed cAG|ABA GED|E^FG ABc|^cde ^f=cd|
_e=ed cAG|ABA GED|E^FG ABd|cA^G Ace|
|:abc' ba^g|aba ged|ef^f ged|cdABcd|
_e2d cAG|ABA GED|E^FG ABd|cA^G|1 Ace:|2 A||

